packages/Snapp/src/LowpriceIcon/index.svg

<?xml version="1.0" encoding="UTF-8"?>
<svg width="24px" height="24px" viewBox="0 0 24 24" version="1.1" xmlns="http://www.w3.org/2000/svg" xmlns:xlink="http://www.w3.org/1999/xlink">
    <title>Icons/24/Lowprice</title>
    <g id="Icons/24/Lowprice" stroke="none" stroke-width="1" fill="none" fill-rule="evenodd">
        <rect id="Container" fill-opacity="0" fill="#D8D8D8" fill-rule="nonzero" x="0" y="0" width="24" height="24"></rect>
        <path d="M6,7.49573651 L7,7.49573651 C7.55228475,7.49573651 8,7.94345176 8,8.49573651 L8,19.4957365 C8,20.0480213 7.55228475,20.4957365 7,20.4957365 L6,20.4957365 C5.44771525,20.4957365 5,20.0480213 5,19.4957365 L5,8.49573651 C5,7.94345176 5.44771525,7.49573651 6,7.49573651 Z M11,10.4957365 L12,10.4957365 C12.5522847,10.4957365 13,10.9434518 13,11.4957365 L13,19.4957365 C13,20.0480213 12.5522847,20.4957365 12,20.4957365 L11,20.4957365 C10.4477153,20.4957365 10,20.0480213 10,19.4957365 L10,11.4957365 C10,10.9434518 10.4477153,10.4957365 11,10.4957365 Z M16,13.4957365 L17,13.4957365 C17.5522847,13.4957365 18,13.9434518 18,14.4957365 L18,19.4957365 C18,20.0480213 17.5522847,20.4957365 17,20.4957365 L16,20.4957365 C15.4477153,20.4957365 15,20.0480213 15,19.4957365 L15,14.4957365 C15,13.9434518 15.4477153,13.4957365 16,13.4957365 Z M7.17003175,3.16828588 C10.230889,5.7820527 12.8370614,6.942103 17.0088668,7.65820394 L15.9765785,5.920905 C15.7822565,5.59411434 15.8561915,5.17106471 16.1358863,4.93622468 L16.2040553,4.8855013 C16.5150356,4.68129984 16.9176178,4.75899375 17.1410961,5.0529083 L17.1893655,5.12454308 L19.0839489,8.31065676 C19.278271,8.63744742 19.204336,9.06049705 18.9246412,9.29533708 L18.8564722,9.34606046 L15.7778601,11.3675939 C15.4429583,11.5875032 15.0018199,11.4804805 14.79255,11.1285521 C14.5982279,10.8017615 14.672163,10.3787118 14.9518577,10.1438718 L15.0200268,10.0931484 L16.5347678,9.09839358 C12.2234119,8.31805085 9.46667639,7.06589086 6.26814658,4.33456093 C5.96167,4.07285049 5.91511551,3.59961269 6.16416423,3.27755473 C6.41321294,2.95549677 6.86355517,2.90657544 7.17003175,3.16828588 Z" id="Shape" fill="#242933"></path>
    </g>
</svg>

<svg viewBox="0 0 24 24" xmlns="http://www.w3.org/2000/svg" fill="currentColor" focusable="false">
  <path d="M6 7.496h1a1 1 0 011 1v11a1 1 0 01-1 1H6a1 1 0 01-1-1v-11a1 1 0 011-1zm5 3h1a1 1 0 011 1v8a1 1 0 01-1 1h-1a1 1 0 01-1-1v-8a1 1 0 011-1zm5 3h1a1 1 0 011 1v5a1 1 0 01-1 1h-1a1 1 0 01-1-1v-5a1 1 0 011-1zM7.17 3.168c3.06 2.614 5.667 3.774 9.839 4.49l-1.032-1.737a.778.778 0 01.159-.985l.068-.05a.692.692 0 01.937.167l.048.072 1.895 3.186c.194.326.12.75-.16.984l-.068.051-3.078 2.022a.695.695 0 01-.985-.24.778.778 0 01.159-.984l.068-.05 1.515-.996c-4.312-.78-7.068-2.032-10.267-4.763a.778.778 0 01-.104-1.057.692.692 0 011.006-.11z" fill="#242933" fill-rule="evenodd"/>
</svg>
